;FLAVOR:Marlin
;TIME:4677
;Filament used: 6.10565m
;Layer height: 0.16
;MINX:41.4
;MINY:73
;MINZ:0.2
;MAXX:193.6
;MAXY:162
;MAXZ:9.8
;TARGET_MACHINE.NAME:Creality Ender-3
;Generated with Cura_SteamEngine 5.5.0
M140 S60
M105
M190 S60
M104 S200
M105
M109 S200
M82 ;absolute extrusion mode
; Ender 3 Custom Start G-code
G92 E0 ; Reset Extruder
G28 ; Home all axes
G1 Z2.0 F3000 ; Move Z Axis up little to prevent scratching of Heat Bed
G1 X0.1 Y20 Z0.3 F5000.0 ; Move to start position
G1 X0.1 Y200.0 Z0.3 F1500.0 E15 ; Draw the first line
G1 X0.4 Y200.0 Z0.3 F5000.0 ; Move to side a little
G1 X0.4 Y20 Z0.3 F1500.0 E30 ; Draw the second line
G92 E0 ; Reset Extruder
G1 Z2.0 F3000 ; Move Z Axis up little to prevent scratching of Heat Bed
G1 X5 Y20 Z0.3 F5000.0 ; Move over to prevent blob squish
G92 E0
G92 E0
G1 F2700 E-5
;LAYER_COUNT:49
;LAYER:0
M107
G0 F6000 X46.324 Y74.846 Z0.2
;TYPE:SKIRT
G1 F2700 E0
G1 F1200 X47.221 Y74.311 E0.03474
G1 X48.099 Y73.89 E0.06712
G1 X49.012 Y73.548 E0.09955
G1 X49.949 Y73.289 E0.13188
G1 X50.916 Y73.111 E0.16459
G1 X52.055 Y73.015 E0.2026
G1 X52.712 Y73 E0.22446
G1 X181.904 Y73 E4.52141
G1 X182.784 Y73.013 E4.55068
G1 X183.756 Y73.072 E4.58307
G1 X184.719 Y73.218 E4.61546
G1 X185.666 Y73.449 E4.64788
G1 X186.554 Y73.749 E4.67906
G1 X187.446 Y74.139 E4.71144
G1 X188.329 Y74.626 E4.74498
G1 X189.08 Y75.128 E4.77502
G1 X189.895 Y75.786 E4.80986
G1 X190.593 Y76.464 E4.84223
G1 X191.229 Y77.201 E4.8746
G1 X191.799 Y77.991 E4.907
G1 X192.261 Y78.767 E4.93704
G1 X192.715 Y79.709 E4.97182
G1 X193.044 Y80.587 E5.00301
G1 X193.313 Y81.559 E5.03655
G1 X193.49 Y82.525 E5.06922
G1 X193.585 Y83.655 E5.10693
G1 X193.6 Y84.33 E5.12939
G1 X193.599 Y150.4 E7.32689
G1 X193.588 Y151.163 E7.35227
G1 X193.531 Y152.136 E7.38468
G1 X193.386 Y153.099 E7.41707
G1 X193.157 Y154.045 E7.44945
G1 X192.846 Y154.969 E7.48187
G1 X192.454 Y155.86 E7.51425
G1 X191.986 Y156.712 E7.54658
G1 X191.464 Y157.493 E7.57782
G1 X190.831 Y158.278 E7.61136
G1 X190.206 Y158.929 E7.64138
G1 X189.417 Y159.617 E7.6762
G1 X188.657 Y160.167 E7.7074
G1 X187.79 Y160.684 E7.74098
G1 X186.912 Y161.106 E7.77338
G1 X186.001 Y161.448 E7.80574
G1 X185.062 Y161.709 E7.83816
G1 X184.096 Y161.887 E7.87083
G1 X182.945 Y161.985 E7.90925
G1 X182.27 Y162 E7.9317
G1 X52.964 Y161.999 E12.23244
G1 X52.231 Y161.988 E12.25682
G1 X51.259 Y161.931 E12.2892
G1 X50.296 Y161.785 E12.3216
G1 X49.35 Y161.556 E12.35397
G1 X48.426 Y161.244 E12.38641
G1 X47.536 Y160.852 E12.41876
G1 X46.713 Y160.401 E12.44997
G1 X45.874 Y159.84 E12.48354
G1 X45.17 Y159.274 E12.51358
G1 X44.417 Y158.549 E12.54835
G1 X43.78 Y157.813 E12.58072
G1 X43.25 Y157.082 E12.61075
G1 X42.714 Y156.185 E12.64551
G1 X42.292 Y155.307 E12.67791
G1 X41.95 Y154.395 E12.71031
G1 X41.69 Y153.457 E12.74268
G1 X41.512 Y152.488 E12.77545
G1 X41.414 Y151.309 E12.8148
G1 X41.4 Y150.658 E12.83645
G1 X41.401 Y84.525 E15.03605
G1 X41.412 Y83.825 E15.05933
G1 X41.47 Y82.852 E15.09175
G1 X41.616 Y81.889 E15.12415
G1 X41.846 Y80.943 E15.15653
G1 X42.159 Y80.02 E15.18894
G1 X42.551 Y79.13 E15.22129
G1 X43.021 Y78.277 E15.25368
G1 X43.564 Y77.469 E15.28606
G1 X44.131 Y76.765 E15.31613
G1 X44.856 Y76.013 E15.35087
G1 X45.592 Y75.376 E15.38324
G1 X46.324 Y74.846 E15.4133
G0 F6000 X46.559 Y75.17
G1 F1200 X47.395 Y74.671 E15.44568
G1 X48.24 Y74.264 E15.47688
G1 X49.119 Y73.933 E15.50812
G1 X50.022 Y73.682 E15.53929
G1 X50.95 Y73.51 E15.57068
G1 X52.089 Y73.414 E15.6087
G1 X52.721 Y73.4 E15.62973
G1 X181.898 Y73.4 E19.92617
G1 X182.76 Y73.412 E19.95484
G1 X183.697 Y73.468 E19.98606
G1 X184.625 Y73.607 E20.01727
G1 X185.538 Y73.828 E20.04852
G1 X186.394 Y74.116 E20.07856
G1 X187.286 Y74.506 E20.11094
G1 X188.107 Y74.959 E20.14212
G1 X188.858 Y75.461 E20.17217
G1 X189.617 Y76.073 E20.2046
G1 X190.291 Y76.726 E20.23581
G1 X190.905 Y77.435 E20.267
G1 X191.455 Y78.196 E20.29823
G1 X191.917 Y78.972 E20.32827
G1 X192.34 Y79.849 E20.36066
G1 X192.669 Y80.727 E20.39184
G1 X192.92 Y81.632 E20.42308
G1 X193.091 Y82.559 E20.45443
G1 X193.186 Y83.689 E20.49215
G1 X193.2 Y84.33 E20.51347
G1 X193.199 Y150.395 E22.7108
G1 X193.189 Y151.14 E22.73558
G1 X193.135 Y152.077 E22.7668
G1 X192.997 Y153.006 E22.79804
G1 X192.778 Y153.918 E22.82923
G1 X192.48 Y154.808 E22.86045
G1 X192.103 Y155.668 E22.89168
G1 X191.653 Y156.49 E22.92285
G1 X191.131 Y157.271 E22.95409
G1 X190.542 Y158.001 E22.98529
G1 X189.917 Y158.652 E23.01531
G1 X189.182 Y159.293 E23.04774
G1 X188.422 Y159.843 E23.07895
G1 X187.616 Y160.324 E23.11017
G1 X186.771 Y160.732 E23.14138
G1 X185.893 Y161.063 E23.17258
G1 X184.989 Y161.316 E23.20381
G1 X184.062 Y161.488 E23.23516
G1 X182.911 Y161.586 E23.27359
G1 X182.27 Y161.6 E23.29491
G1 X52.97 Y161.599 E27.59545
G1 X52.254 Y161.589 E27.61926
G1 X51.318 Y161.535 E27.65045
G1 X50.389 Y161.396 E27.68169
G1 X49.477 Y161.177 E27.71288
G1 X48.587 Y160.878 E27.74411
G1 X47.728 Y160.501 E27.77531
G1 X46.905 Y160.05 E27.80653
G1 X46.125 Y159.528 E27.83774
G1 X45.421 Y158.962 E27.86779
G1 X44.719 Y158.287 E27.90018
G1 X44.104 Y157.578 E27.93139
G1 X43.574 Y156.847 E27.96143
G1 X43.074 Y156.011 E27.99382
G1 X42.666 Y155.166 E28.02503
G1 X42.335 Y154.288 E28.05624
G1 X42.083 Y153.384 E28.08746
G1 X41.911 Y152.455 E28.11888
G1 X41.813 Y151.276 E28.15823
G1 X41.8 Y150.658 E28.17879
G1 X41.801 Y84.531 E30.37818
G1 X41.811 Y83.848 E30.4009
G1 X41.866 Y82.911 E30.43212
G1 X42.005 Y81.983 E30.46333
G1 X42.225 Y81.071 E30.49453
G1 X42.525 Y80.181 E30.52577
G1 X42.902 Y79.322 E30.55697
G1 X43.353 Y78.5 E30.58816
G1 X43.876 Y77.72 E30.61939
G1 X44.443 Y77.016 E30.64946
G1 X45.118 Y76.315 E30.68182
G1 X45.827 Y75.7 E30.71304
G1 X46.559 Y75.17 E30.7431
G0 F6000 X46.794 Y75.494
G1 F1200 X47.569 Y75.031 E30.77312
G1 X48.382 Y74.638 E30.80316
G1 X49.227 Y74.318 E30.83321
G1 X50.096 Y74.075 E30.86322
G1 X50.984 Y73.909 E30.89327
G1 X52.123 Y73.813 E30.93129
G1 X52.73 Y73.8 E30.95148
G1 X181.893 Y73.8 E35.24746
G1 X182.737 Y73.811 E35.27553
G1 X183.639 Y73.864 E35.30559
G1 X184.532 Y73.996 E35.33561
G1 X185.41 Y74.207 E35.36564
G1 X186.266 Y74.495 E35.39568
G1 X187.093 Y74.857 E35.42571
G1 X187.885 Y75.292 E35.45576
G1 X188.636 Y75.794 E35.48581
G1 X189.339 Y76.361 E35.51585
G1 X189.989 Y76.988 E35.54588
G1 X190.581 Y77.67 E35.57592
G1 X191.111 Y78.401 E35.60595
G1 X191.573 Y79.177 E35.63599
G1 X191.966 Y79.99 E35.66602
G1 X192.284 Y80.835 E35.69605
G1 X192.527 Y81.705 E35.7261
G1 X192.692 Y82.593 E35.75614
G1 X192.787 Y83.723 E35.79385
G1 X192.8 Y84.33 E35.81405
G1 X192.799 Y150.39 E38.01121
G1 X192.79 Y151.117 E38.03539
G1 X192.739 Y152.019 E38.06544
G1 X192.608 Y152.913 E38.09549
G1 X192.399 Y153.791 E38.12551
G1 X192.113 Y154.648 E38.15556
G1 X191.752 Y155.476 E38.18561
G1 X191.32 Y156.268 E38.21561
G1 X190.819 Y157.02 E38.24567
G1 X190.253 Y157.724 E38.27571
G1 X189.628 Y158.375 E38.30573
G1 X188.947 Y158.969 E38.33578
G1 X188.216 Y159.5 E38.36583
G1 X187.442 Y159.964 E38.39585
G1 X186.629 Y160.358 E38.4259
G1 X185.785 Y160.678 E38.45592
G1 X184.915 Y160.923 E38.48598
G1 X184.028 Y161.089 E38.51599
G1 X182.877 Y161.187 E38.55441
G1 X182.27 Y161.2 E38.57461
G1 X52.975 Y161.199 E42.87498
G1 X52.277 Y161.19 E42.89819
G1 X51.376 Y161.139 E42.92821
G1 X50.482 Y161.007 E42.95827
G1 X49.604 Y160.798 E42.98828
G1 X48.747 Y160.511 E43.01834
G1 X47.92 Y160.15 E43.04836
G1 X47.127 Y159.717 E43.07841
G1 X46.376 Y159.216 E43.10843
G1 X45.672 Y158.65 E43.13848
G1 X45.021 Y158.024 E43.16852
G1 X44.428 Y157.343 E43.19855
G1 X43.898 Y156.612 E43.22858
G1 X43.434 Y155.837 E43.25863
G1 X43.04 Y155.024 E43.28867
G1 X42.72 Y154.18 E43.3187
G1 X42.476 Y153.31 E43.34875
G1 X42.31 Y152.422 E43.3788
G1 X42.213 Y151.267 E43.41735
G1 X42.2 Y150.658 E43.43761
G1 X42.201 Y84.536 E45.63683
G1 X42.21 Y83.871 E45.65895
G1 X42.262 Y82.969 E45.689
G1 X42.394 Y82.076 E45.71903
G1 X42.604 Y81.198 E45.74905
G1 X42.891 Y80.341 E45.77911
G1 X43.253 Y79.514 E45.80914
G1 X43.686 Y78.722 E45.83916
G1 X44.188 Y77.971 E45.86921
G1 X44.755 Y77.267 E45.89927
G1 X45.381 Y76.617 E45.92929
G1 X46.062 Y76.024 E45.95932
G1 X46.794 Y75.494 E45.98938
G1 F2700 E40.98938
;MESH:CYD Boat Display-Body.stl
G0 F6000 X73.345 Y99.543
G0 X73.672 Y142.928
G0 X134.122 Y143.1
;TYPE:WALL-INNER
G1 F2700 E45.98938
G1 F1200 X74.378 Y143.1 E47.97647
G1 X74.147 Y143.037 E47.98443
G1 X73.857 Y142.867 E47.99562
G1 X73.659 Y142.642 E48.00558
G1 X73.548 Y142.409 E48.01417
G1 X73.504 Y142.196 E48.0214
G1 X73.5 Y95.985 E49.55839
G1 X73.627 Y95.61 E49.57155
G1 X73.911 Y95.291 E49.58576
G1 X74.123 Y95.173 E49.59383
G1 X74.411 Y95.1 E49.60371
G1 X134.093 Y95.1 E51.58874
G1 X134.385 Y95.176 E51.59878
G1 X134.601 Y95.299 E51.60705
G1 X134.831 Y95.542 E51.61817
G1 X134.924 Y95.715 E51.62471
G1 X134.998 Y96.031 E51.6355
G1 X134.996 Y142.196 E53.17096
G1 X134.952 Y142.409 E53.17819
G1 X134.841 Y142.642 E53.18677
G1 X134.643 Y142.867 E53.19674
G1 X134.352 Y143.037 E53.20795
G1 X134.122 Y143.1 E53.21588
G0 F6000 X134.075 Y142.7
G1 F1200 X74.423 Y142.7 E55.19992
G1 X74.195 Y142.617 E55.20799
G1 X74.047 Y142.495 E55.21437
G1 X73.956 Y142.355 E55.21992
G1 X73.902 Y142.158 E55.22671
G1 X73.902 Y96.044 E56.76047
G1 X73.951 Y95.856 E56.76693
G1 X74.093 Y95.658 E56.77504
G1 X74.381 Y95.5 E56.78596
G1 X134.077 Y95.5 E58.77146
G1 X134.361 Y95.619 E58.7817
G1 X134.46 Y95.714 E58.78627
G1 X134.599 Y95.966 E58.79584
G1 X134.598 Y142.158 E60.33219
G1 X134.505 Y142.425 E60.34159
G1 X134.386 Y142.56 E60.34758
G1 X134.075 Y142.7 E60.35892
G1 F2700 E55.35892
G0 F6000 X134.075 Y143
G0 X134.828 Y142.928
G0 X135.176 Y142.213
G0 X135.176 Y149.8
G0 X181.6 Y150
G1 F2700 E60.35892
G1 F1200 X181.6 Y85 E62.52083
G1 X53.401 Y85.001 E66.78475
G1 X53.4 Y150 E68.94662
G1 X181.6 Y150 E73.21057
G0 F6000 X182 Y150.4
G1 F1200 X182 Y84.6 E75.39909
G1 X53.001 Y84.601 E79.68961
G1 X53 Y150.4 E81.8781
G1 X182 Y150.4 E86.16865
G0 F6000 X182.4 Y150.8
;TYPE:WALL-OUTER
G1 F1200 X182.4 Y84.2 E88.38378
G1 X52.601 Y84.201 E92.70091
G1 X52.6 Y150.8 E94.916
G1 X182.4 Y150.8 E99.23317
G1 F2700 E94.23317
G0 F6000 X182.13 Y150.53
G0 X134.035 Y149.8
G0 X134.035 Y143.28
G0 X134.035 Y143
G0 X134.035 Y142.298
G1 F2700 E99.23317
G1 F1200 X74.463 Y142.297 E101.21454
G1 X74.371 Y142.254 E101.21792
G1 X74.3 Y142.12 E101.22296
G1 X74.305 Y96.051 E102.75522
G1 X74.382 Y95.938 E102.75977
G1 X74.465 Y95.902 E102.76278
G1 X134.035 Y95.902 E104.74409
G1 X134.121 Y95.939 E104.7472
G1 X134.196 Y96.056 E104.75182
G1 X134.2 Y142.12 E106.28392
G1 X134.129 Y142.254 E106.28896
G1 X134.035 Y142.298 E106.29241
G1 F2700 E101.29241
G0 F6000 X134.035 Y143
G0 X74.354 Y143.281
G0 X74.354 Y149.8
G0 X53.761 Y149.9
G0 X53.761 Y149.64
;TYPE:SKIN
G1 F2700 E106.29241
G1 F1200 X53.761 Y85.361 E108.43034
G1 X181.24 Y85.361 E112.67031
G1 X181.24 Y149.64 E114.80824
G1 X53.761 Y149.64 E119.04821
G1 F2700 E114.04821
G0 F6000 X53.761 Y149.9
G0 X134.134 Y149.8
G0 X134.134 Y143.28
G0 X134.174 Y143.458
G1 F2700 E119.04821
G1 F1200 X134.463 Y143.378 E119.05818
G1 X134.876 Y143.145 E119.07395
G1 X135.144 Y142.837 E119.08753
G1 X135.294 Y142.522 E119.09914
G1 X135.355 Y142.231 E119.10903
G1 X135.358 Y95.997 E120.64678
G1 X135.295 Y95.683 E120.65743
G1 X135.097 Y95.276 E120.67248
G1 X134.816 Y95.01 E120.68535
G1 X134.523 Y94.844 E120.69655
G1 X134.139 Y94.742 E120.70977
G1 X74.477 Y94.741 E122.69413
G1 X74.168 Y94.78 E122.70449
G1 X73.854 Y94.903 E122.71571
G1 X73.571 Y95.104 E122.72725
G1 X73.257 Y95.541 E122.74515
G1 X73.147 Y95.958 E122.75949
G1 X73.145 Y142.295 E124.30067
G1 X73.257 Y142.653 E124.31315
G1 X73.475 Y143 E124.32677
G1 X73.884 Y143.333 E124.34432
G1 X74.33 Y143.46 E124.35974
G1 X134.174 Y143.458 E126.35016
G1 F2700 E121.35016
G0 F6000 X134.134 Y143.2
G0 X134.828 Y142.928
G0 X135.179 Y96.018
G0 X181.4 Y96.018
G0 X181.5 Y86.003
G0 X181.039 Y86.003
G1 F2700 E126.35016
G1 F1200 X180.596 Y85.561 E126.37097
G0 F6000 X180.03 Y85.561
G1 F1200 X181.039 Y86.569 E126.41841
G0 F6000 X181.039 Y87.135
G1 F1200 X179.465 Y85.561 E126.49245
G0 F6000 X178.899 Y85.561
G1 F1200 X181.039 Y87.701 E126.59311
G0 F6000 X181.039 Y88.266
G1 F1200 X178.333 Y85.561 E126.72036
G0 F6000 X177.768 Y85.561
G1 F1200 X181.039 Y88.832 E126.87422
G0 F6000 X181.039 Y89.398
G1 F1200 X177.202 Y85.561 E127.0547
G0 F6000 X176.636 Y85.561
G1 F1200 X181.039 Y89.963 E127.26178
G0 F6000 X181.039 Y90.529
G1 F1200 X176.071 Y85.561 E127.49546
G0 F6000 X175.505 Y85.561
G1 F1200 X181.039 Y91.095 E127.75576
G0 F6000 X181.039 Y91.66
G1 F1200 X174.939 Y85.561 E128.04267
G0 F6000 X174.373 Y85.561
G1 F1200 X181.039 Y92.226 E128.35619
G0 F6000 X181.039 Y92.792
G1 F1200 X173.808 Y85.561 E128.69632
G0 F6000 X173.242 Y85.561
G1 F1200 X181.039 Y93.357 E129.06304
G0 F6000 X181.039 Y93.923
G1 F1200 X172.676 Y85.561 E129.45639
G0 F6000 X172.111 Y85.561
G1 F1200 X181.039 Y94.489 E129.87633
G0 F6000 X181.039 Y95.054
G1 F1200 X171.545 Y85.561 E130.32288
G0 F6000 X170.979 Y85.561
G1 F1200 X181.039 Y95.62 E130.79604
G0 F6000 X181.039 Y96.186
G1 F1200 X170.414 Y85.561 E131.29581
G0 F6000 X169.848 Y85.561
G1 F1200 X181.039 Y96.752 E131.8222
G0 F6000 X181.039 Y97.317
G1 F1200 X169.282 Y85.561 E132.37519
G0 F6000 X168.717 Y85.561
G1 F1200 X181.039 Y97.883 E132.95478
G0 F6000 X181.039 Y98.449
G1 F1200 X168.151 Y85.561 E133.56099
G0 F6000 X167.585 Y85.561
G1 F1200 X181.039 Y99.014 E134.1938
G0 F6000 X181.039 Y99.58
G1 F1200 X167.02 Y85.561 E134.85321
G0 F6000 X166.454 Y85.561
G1 F1200 X181.039 Y100.146 E135.53925
G0 F6000 X181.039 Y100.711
G1 F1200 X165.888 Y85.561 E136.25188
G0 F6000 X165.322 Y85.561
G1 F1200 X181.039 Y101.277 E136.99114
G0 F6000 X181.039 Y101.843
G1 F1200 X164.757 Y85.561 E137.75699
G0 F6000 X164.191 Y85.561
G1 F1200 X181.039 Y102.408 E138.54945
G0 F6000 X181.039 Y102.974
G1 F1200 X163.625 Y85.561 E139.36853
G0 F6000 X163.06 Y85.561
G1 F1200 X181.039 Y103.54 E140.2142
G0 F6000 X181.039 Y104.105
G1 F1200 X162.494 Y85.561 E141.08648
G0 F6000 X161.928 Y85.561
G1 F1200 X181.039 Y104.671 E141.98538
G0 F6000 X181.039 Y105.237
G1 F1200 X161.363 Y85.561 E142.91088
G0 F6000 X160.797 Y85.561
G1 F1200 X181.039 Y105.802 E143.86297
G0 F6000 X181.039 Y106.368
G1 F1200 X160.231 Y85.561 E144.8417
G0 F6000 X159.666 Y85.561
G1 F1200 X181.039 Y106.934 E145.84702
G0 F6000 X181.039 Y107.5
G1 F1200 X159.1 Y85.561 E146.87896
G0 F6000 X158.534 Y85.561
G1 F1200 X181.039 Y108.065 E147.9375
G0 F6000 X181.039 Y108.631
G1 F1200 X157.969 Y85.561 E149.02264
G0 F6000 X157.403 Y85.561
G1 F1200 X181.039 Y109.197 E150.13441
G0 F6000 X181.039 Y109.762
G1 F1200 X156.837 Y85.561 E151.27277
G0 F6000 X156.272 Y85.561
G1 F1200 X181.039 Y110.328 E152.43774
G0 F6000 X181.039 Y110.894
G1 F1200 X155.706 Y85.561 E153.62932
G0 F6000 X155.14 Y85.561
G1 F1200 X181.039 Y111.459 E154.84751
G0 F6000 X181.039 Y112.025
G1 F1200 X154.574 Y85.561 E156.09232
G0 F6000 X154.009 Y85.561
G1 F1200 X181.039 Y112.591 E157.36373
G0 F6000 X181.039 Y113.156
G1 F1200 X153.443 Y85.561 E158.66174
G0 F6000 X152.877 Y85.561
G1 F1200 X181.039 Y113.722 E159.98637
G0 F6000 X181.039 Y114.288
G1 F1200 X152.312 Y85.561 E161.3376
G0 F6000 X151.746 Y85.561
G1 F1200 X181.039 Y114.853 E162.71543
G0 F6000 X181.039 Y115.419
G1 F1200 X151.18 Y85.561 E164.11988
G0 F6000 X150.615 Y85.561
G1 F1200 X181.039 Y115.985 E165.55093
G0 F6000 X181.039 Y116.55
G1 F1200 X150.049 Y85.561 E167.00858
G0 F6000 X149.483 Y85.561
G1 F1200 X181.039 Y117.116 E168.49285
G0 F6000 X181.039 Y117.682
G1 F1200 X148.918 Y85.561 E170.00373
G0 F6000 X148.352 Y85.561
G1 F1200 X181.039 Y118.248 E171.54122
G0 F6000 X181.039 Y118.813
G1 F1200 X147.786 Y85.561 E173.10532
G0 F6000 X147.221 Y85.561
G1 F1200 X181.039 Y119.379 E174.69601
G0 F6000 X181.039 Y119.945
G1 F1200 X146.655 Y85.561 E176.31333
G0 F6000 X146.089 Y85.561
G1 F1200 X181.039 Y120.51 E177.95725
G0 F6000 X181.039 Y121.076
G1 F1200 X145.523 Y85.561 E179.62779
G0 F6000 X144.958 Y85.561
G1 F1200 X181.039 Y121.642 E181.32493
G0 F6000 X181.039 Y122.207
G1 F1200 X144.392 Y85.561 E183.04867
G0 F6000 X143.826 Y85.561
G1 F1200 X181.039 Y122.773 E184.79903
G0 F6000 X181.039 Y123.339
G1 F1200 X143.261 Y85.561 E186.57599
G0 F6000 X142.695 Y85.561
G1 F1200 X181.039 Y123.904 E188.37955
G0 F6000 X181.039 Y124.47
