;FLAVOR:Marlin
;TIME:5154
;Filament used: 5.91845m
;Layer height: 0.16
;MINX:61.35
;MINY:23.754
;MINZ:0.2
;MAXX:173.65
;MAXY:155.7
;MAXZ:12.8
;TARGET_MACHINE.NAME:Creality Ender-3
;Generated with Cura_SteamEngine 5.5.0
M140 S60
M105
M190 S60
M104 S200
M105
M109 S200
M82 ;absolute extrusion mode
; Ender 3 Custom Start G-code
G92 E0 ; Reset Extruder
G28 ; Home all axes
G1 Z2.0 F3000 ; Move Z Axis up little to prevent scratching of Heat Bed
G1 X0.1 Y20 Z0.3 F5000.0 ; Move to start position
G1 X0.1 Y200.0 Z0.3 F1500.0 E15 ; Draw the first line
G1 X0.4 Y200.0 Z0.3 F5000.0 ; Move to side a little
G1 X0.4 Y20 Z0.3 F1500.0 E30 ; Draw the second line
G92 E0 ; Reset Extruder
G1 Z2.0 F3000 ; Move Z Axis up little to prevent scratching of Heat Bed
G1 X5 Y20 Z0.3 F5000.0 ; Move over to prevent blob squish
G92 E0
G92 E0
G1 F2700 E-5
;LAYER_COUNT:64
;LAYER:0
M107
G0 F6000 X63.362 Y32.759 Z0.2
;TYPE:SKIRT
G1 F2700 E0
G1 F1200 X63.805 Y31.973 E0.03001
G1 X63.991 Y31.674 E0.04172
G1 X64.327 Y31.166 E0.06198
G1 X64.562 Y30.831 E0.07559
G1 X64.979 Y30.278 E0.09862
G1 X65.357 Y29.812 E0.11858
G1 X66.064 Y29.02 E0.15389
G1 X66.466 Y28.614 E0.1729
G1 X67.175 Y27.958 E0.20502
G1 X67.597 Y27.601 E0.22341
G1 X68.323 Y27.038 E0.25396
G1 X68.777 Y26.718 E0.27244
G1 X69.488 Y26.258 E0.3006
G1 X69.851 Y26.042 E0.31465
G1 X70.608 Y25.631 E0.3433
G1 X71.276 Y25.313 E0.36791
G1 X71.903 Y25.039 E0.39067
G1 X72.965 Y24.641 E0.42839
G1 X73.45 Y24.488 E0.4453
G1 X74.193 Y24.281 E0.47096
G1 X74.599 Y24.184 E0.48484
G1 X75.25 Y24.051 E0.50694
G1 X75.616 Y23.988 E0.51929
G1 X76.303 Y23.892 E0.54236
G1 X76.843 Y23.835 E0.56042
G1 X77.55 Y23.783 E0.584
G1 X78.481 Y23.755 E0.61498
G1 X156.183 Y23.754 E3.19936
G1 X157.224 Y23.773 E3.23399
G1 X158.174 Y23.83 E3.26564
G1 X158.938 Y23.92 E3.29123
G1 X159.458 Y24 E3.30873
G1 X160.158 Y24.133 E3.33243
G1 X160.516 Y24.213 E3.34463
G1 X161.229 Y24.399 E3.36914
G1 X161.887 Y24.595 E3.39197
G1 X162.908 Y24.958 E3.42801
G1 X163.336 Y25.135 E3.44342
G1 X164.111 Y25.492 E3.4718
G1 X164.65 Y25.767 E3.49192
G1 X165.418 Y26.201 E3.52126
G1 X165.717 Y26.385 E3.53294
G1 X166.234 Y26.727 E3.55356
G1 X166.569 Y26.962 E3.56717
G1 X167.103 Y27.364 E3.5894
G1 X167.58 Y27.75 E3.60981
G1 X168.329 Y28.416 E3.64315
G1 X168.779 Y28.859 E3.66415
G1 X169.434 Y29.566 E3.6962
G1 X169.791 Y29.988 E3.71459
G1 X170.356 Y30.718 E3.74529
G1 X170.675 Y31.169 E3.76366
G1 X171.134 Y31.874 E3.79164
G1 X171.328 Y32.2 E3.80426
G1 X171.783 Y33.038 E3.83598
G1 X172.09 Y33.68 E3.85965
G1 X172.357 Y34.291 E3.88182
G1 X172.759 Y35.363 E3.9199
G1 X172.911 Y35.844 E3.93668
G1 X173.12 Y36.598 E3.9627
G1 X173.217 Y37.004 E3.97659
G1 X173.347 Y37.639 E3.99815
G1 X173.41 Y38.004 E4.01047
G1 X173.511 Y38.73 E4.03484
G1 X173.576 Y39.369 E4.05621
G1 X173.632 Y40.317 E4.08779
G1 X173.644 Y41.238 E4.11843
G1 X173.65 Y82.108 E5.47777
G1 X173.628 Y83.379 E5.52005
G1 X173.501 Y86.14 E5.61198
G1 X173.437 Y88.713 E5.69758
G1 X173.446 Y91.195 E5.78014
G1 X173.529 Y93.756 E5.86536
G1 X173.587 Y94.727 E5.89771
G1 X173.631 Y95.82 E5.9341
G1 X173.643 Y96.636 E5.96124
G1 X173.65 Y138.09 E7.34
G1 X173.631 Y139.27 E7.37926
G1 X173.605 Y139.785 E7.39641
G1 X173.547 Y140.469 E7.41924
G1 X173.503 Y140.862 E7.43239
G1 X173.408 Y141.508 E7.45411
G1 X173.258 Y142.277 E7.48017
G1 X173.156 Y142.721 E7.49532
G1 X172.92 Y143.582 E7.52501
G1 X172.749 Y144.119 E7.54376
G1 X172.451 Y144.936 E7.57268
G1 X172.269 Y145.376 E7.58852
G1 X171.912 Y146.153 E7.61696
G1 X171.64 Y146.687 E7.63689
G1 X171.203 Y147.461 E7.66646
G1 X171.016 Y147.765 E7.67833
G1 X170.673 Y148.284 E7.69902
G1 X170.438 Y148.619 E7.71263
G1 X170.036 Y149.153 E7.73486
G1 X169.65 Y149.63 E7.75527
G1 X168.984 Y150.379 E7.7886
G1 X168.541 Y150.829 E7.80961
G1 X167.835 Y151.484 E7.84164
G1 X167.415 Y151.839 E7.85993
G1 X166.754 Y152.356 E7.88784
G1 X166.456 Y152.569 E7.90002
G1 X165.921 Y152.931 E7.92151
G1 X165.556 Y153.161 E7.93586
G1 X164.959 Y153.51 E7.95886
G1 X164.443 Y153.791 E7.9784
G1 X163.475 Y154.253 E8.01407
G1 X162.921 Y154.485 E8.03405
G1 X162.173 Y154.765 E8.06061
G1 X161.247 Y155.051 E8.09285
G1 X160.705 Y155.193 E8.11148
G1 X159.741 Y155.399 E8.14427
G1 X159.295 Y155.474 E8.15931
G1 X158.643 Y155.564 E8.1812
G1 X158.035 Y155.626 E8.20153
G1 X157.082 Y155.682 E8.23328
G1 X156.164 Y155.694 E8.26382
G1 X78.943 Y155.7 E10.8322
G1 X77.819 Y155.681 E10.86959
G1 X77.25 Y155.655 E10.88853
G1 X76.561 Y155.596 E10.91153
G1 X75.57 Y155.463 E10.94479
G1 X74.707 Y155.294 E10.97404
G1 X73.826 Y155.068 E11.00429
G1 X73.117 Y154.855 E11.02891
G1 X72.115 Y154.5 E11.06427
G1 X71.662 Y154.314 E11.08056
G1 X70.916 Y153.972 E11.10785
G1 X70.35 Y153.683 E11.12899
G1 X69.582 Y153.25 E11.15831
G1 X69.293 Y153.072 E11.1696
G1 X68.76 Y152.718 E11.19088
G1 X68.424 Y152.482 E11.20454
G1 X67.878 Y152.07 E11.22729
G1 X67.422 Y151.702 E11.24678
G1 X66.671 Y151.034 E11.28021
G1 X66.221 Y150.591 E11.30121
G1 X65.567 Y149.886 E11.3332
G1 X65.211 Y149.465 E11.35153
G1 X64.697 Y148.807 E11.3793
G1 X64.477 Y148.502 E11.39181
G1 X64.11 Y147.956 E11.41369
G1 X63.883 Y147.597 E11.42782
G1 X63.533 Y147 E11.45084
G1 X63.255 Y146.485 E11.4703
G1 X62.797 Y145.525 E11.50568
G1 X62.565 Y144.968 E11.52575
G1 X62.245 Y144.101 E11.55649
G1 X62.11 Y143.68 E11.57119
G1 X61.931 Y143.049 E11.59301
G1 X61.822 Y142.613 E11.60795
G1 X61.648 Y141.788 E11.636
G1 X61.583 Y141.403 E11.64898
G1 X61.491 Y140.733 E11.67148
G1 X61.425 Y140.088 E11.69304
G1 X61.368 Y139.133 E11.72486
G1 X61.356 Y138.212 E11.7555
G1 X61.35 Y96.887 E13.12997
G1 X61.386 Y95.36 E13.18077
G1 X61.43 Y94.59 E13.20643
G1 X61.537 Y92.021 E13.29195
G1 X61.571 Y89.497 E13.3759
G1 X61.533 Y87.025 E13.45813
G1 X61.369 Y83.33 E13.58115
G1 X61.357 Y82.513 E13.60833
G1 X61.351 Y41.3 E14.97907
G1 X61.362 Y40.541 E15.00432
G1 X61.403 Y39.597 E15.03575
G1 X61.52 Y38.461 E15.07373
G1 X61.6 Y37.945 E15.0911
G1 X61.73 Y37.26 E15.11429
G1 X61.811 Y36.898 E15.12663
G1 X61.988 Y36.212 E15.15019
G1 X62.173 Y35.584 E15.17197
G1 X62.558 Y34.492 E15.21048
G1 X62.729 Y34.078 E15.22538
G1 X63.088 Y33.297 E15.25396
G1 X63.362 Y32.759 E15.27405
G0 F6000 X63.711 Y32.955
G1 F1200 X64.145 Y32.184 E15.30347
G1 X64.324 Y31.895 E15.31478
G1 X64.655 Y31.396 E15.3347
G1 X64.882 Y31.072 E15.34785
G1 X65.29 Y30.53 E15.37042
G1 X65.668 Y30.064 E15.39037
G1 X66.349 Y29.301 E15.42439
G1 X66.738 Y28.907 E15.44281
G1 X67.433 Y28.263 E15.47432
G1 X67.842 Y27.917 E15.49214
G1 X68.554 Y27.365 E15.5221
G1 X68.994 Y27.054 E15.54002
G1 X69.692 Y26.602 E15.56768
G1 X70.042 Y26.394 E15.58122
G1 X70.799 Y25.983 E15.60987
G1 X71.436 Y25.68 E15.63333
G1 X72.063 Y25.406 E15.65609
G1 X73.086 Y25.022 E15.69244
G1 X73.557 Y24.873 E15.70887
G1 X74.286 Y24.67 E15.73403
G1 X74.679 Y24.576 E15.74747
G1 X75.318 Y24.445 E15.76917
G1 X75.671 Y24.384 E15.78109
G1 X76.345 Y24.29 E15.80372
G1 X76.872 Y24.234 E15.82135
G1 X77.562 Y24.183 E15.84436
G1 X78.481 Y24.155 E15.87494
G1 X156.176 Y24.154 E18.45908
G1 X157.2 Y24.172 E18.49315
G1 X158.127 Y24.227 E18.52403
G1 X158.877 Y24.315 E18.54915
G1 X159.384 Y24.393 E18.56621
G1 X160.071 Y24.523 E18.58947
G1 X160.415 Y24.6 E18.60119
G1 X161.115 Y24.782 E18.62525
G1 X161.753 Y24.972 E18.64739
G1 X162.755 Y25.328 E18.68276
G1 X163.183 Y25.505 E18.69816
G1 X163.929 Y25.848 E18.72547
G1 X164.453 Y26.115 E18.74503
G1 X165.208 Y26.541 E18.77386
G1 X165.496 Y26.719 E18.78512
G1 X166.004 Y27.055 E18.80538
G1 X166.328 Y27.282 E18.81854
G1 X166.862 Y27.684 E18.84077
G1 X167.314 Y28.049 E18.86009
G1 X168.063 Y28.715 E18.89343
G1 X168.486 Y29.131 E18.91316
G1 X169.129 Y29.824 E18.94461
G1 X169.475 Y30.233 E18.96242
G1 X170.03 Y30.949 E18.99255
G1 X170.34 Y31.387 E19.0104
G1 X170.79 Y32.079 E19.03786
G1 X170.984 Y32.405 E19.05047
G1 X171.422 Y33.21 E19.08096
G1 X171.723 Y33.84 E19.10418
G1 X171.99 Y34.451 E19.12636
G1 X172.378 Y35.484 E19.16306
G1 X172.526 Y35.951 E19.17935
G1 X172.731 Y36.691 E19.20489
G1 X172.825 Y37.085 E19.21836
G1 X172.953 Y37.707 E19.23948
G1 X173.014 Y38.059 E19.25137
G1 X173.113 Y38.771 E19.27527
G1 X173.177 Y39.393 E19.29607
G1 X173.232 Y40.322 E19.32702
G1 X173.244 Y41.238 E19.35749
G1 X173.25 Y82.101 E20.7166
G1 X173.228 Y83.361 E20.75852
G1 X173.101 Y86.122 E20.85044
G1 X173.037 Y88.703 E20.93632
G1 X173.046 Y91.208 E21.01963
G1 X173.129 Y93.769 E21.10486
G1 X173.187 Y94.743 E21.13731
G1 X173.231 Y95.826 E21.17336
G1 X173.243 Y96.636 E21.2003
G1 X173.25 Y138.083 E22.57884
G1 X173.231 Y139.25 E22.61766
G1 X173.206 Y139.752 E22.63437
G1 X173.15 Y140.424 E22.6568
G1 X173.107 Y140.804 E22.66952
G1 X173.015 Y141.432 E22.69063
G1 X172.868 Y142.188 E22.71625
G1 X172.77 Y142.616 E22.73085
G1 X172.539 Y143.461 E22.75999
G1 X172.373 Y143.982 E22.77817
G1 X172.081 Y144.783 E22.80653
G1 X171.899 Y145.223 E22.82237
G1 X171.555 Y145.972 E22.84978
G1 X171.291 Y146.491 E22.86915
G1 X170.863 Y147.251 E22.89816
G1 X170.682 Y147.544 E22.90961
G1 X170.345 Y148.054 E22.92994
G1 X170.118 Y148.378 E22.9431
G1 X169.716 Y148.912 E22.96533
G1 X169.351 Y149.364 E22.98466
G1 X168.685 Y150.113 E23.01799
G1 X168.269 Y150.536 E23.03772
G1 X167.576 Y151.179 E23.06917
G1 X167.169 Y151.524 E23.08691
G1 X166.521 Y152.031 E23.11428
G1 X166.232 Y152.238 E23.1261
G1 X165.707 Y152.593 E23.14718
G1 X165.354 Y152.816 E23.16107
G1 X164.768 Y153.159 E23.18365
G1 X164.27 Y153.43 E23.20251
G1 X163.321 Y153.884 E23.2375
G1 X162.781 Y154.11 E23.25697
G1 X162.033 Y154.39 E23.28353
G1 X161.145 Y154.664 E23.31444
G1 X160.621 Y154.802 E23.33247
G1 X159.675 Y155.005 E23.36465
G1 X159.24 Y155.078 E23.37932
G1 X158.602 Y155.166 E23.40074
G1 X158.011 Y155.227 E23.4205
G1 X157.077 Y155.282 E23.45162
G1 X156.164 Y155.294 E23.48199
G1 X78.95 Y155.3 E26.05013
G1 X77.837 Y155.281 E26.08716
G1 X77.284 Y155.256 E26.10557
G1 X76.595 Y155.197 E26.12857
G1 X75.647 Y155.07 E26.16038
G1 X74.806 Y154.906 E26.18888
G1 X73.941 Y154.685 E26.21858
G1 X73.25 Y154.478 E26.24257
G1 X72.267 Y154.13 E26.27725
G1 X71.829 Y153.95 E26.293
G1 X71.083 Y153.608 E26.3203
G1 X70.547 Y153.335 E26.3403
G1 X69.792 Y152.909 E26.36914
G1 X69.503 Y152.731 E26.38042
G1 X68.99 Y152.391 E26.40089
G1 X68.665 Y152.163 E26.4141
G1 X68.129 Y151.759 E26.43642
G1 X67.688 Y151.403 E26.45527
G1 X66.937 Y150.735 E26.4887
G1 X66.514 Y150.319 E26.50844
G1 X65.872 Y149.628 E26.53981
G1 X65.526 Y149.219 E26.55762
G1 X65.021 Y148.573 E26.5849
G1 X64.809 Y148.279 E26.59695
G1 X64.448 Y147.742 E26.61847
G1 X64.228 Y147.394 E26.63217
G1 X63.885 Y146.81 E26.65469
G1 X63.616 Y146.313 E26.67349
G1 X63.166 Y145.371 E26.70821
G1 X62.94 Y144.83 E26.72771
G1 X62.626 Y143.979 E26.75788
G1 X62.495 Y143.57 E26.77217
G1 X62.319 Y142.952 E26.79354
G1 X62.213 Y142.53 E26.80801
G1 X62.042 Y141.721 E26.83551
G1 X61.979 Y141.349 E26.84806
G1 X61.889 Y140.692 E26.87012
G1 X61.824 Y140.064 E26.89112
G1 X61.768 Y139.128 E26.9223
G1 X61.756 Y138.212 E26.95277
G1 X61.75 Y96.896 E28.32695
G1 X61.785 Y95.383 E28.37728
G1 X61.83 Y94.607 E28.40314
G1 X61.937 Y92.038 E28.48866
G1 X61.971 Y89.502 E28.57301
G1 X61.933 Y87.007 E28.65601
G1 X61.769 Y83.324 E28.77862
G1 X61.757 Y82.513 E28.8056
G1 X61.751 Y41.306 E30.17615
G1 X61.762 Y40.558 E30.20103
G1 X61.801 Y39.638 E30.23166
G1 X61.915 Y38.522 E30.26897
G1 X61.993 Y38.019 E30.2859
G1 X62.12 Y37.347 E30.30865
G1 X62.198 Y36.998 E30.32054
G1 X62.372 Y36.325 E30.34366
G1 X62.557 Y35.697 E30.36544
G1 X62.928 Y34.645 E30.40254
G1 X63.099 Y34.231 E30.41744
G1 X63.445 Y33.478 E30.445
G1 X63.711 Y32.955 E30.46451
G0 F6000 X64.06 Y33.151
G1 F1200 X64.485 Y32.395 E30.49336
G1 X64.658 Y32.116 E30.50428
G1 X64.982 Y31.626 E30.52382
G1 X65.202 Y31.313 E30.53654
G1 X65.61 Y30.771 E30.55911
G1 X65.966 Y30.33 E30.57796
G1 X66.634 Y29.582 E30.61131
G1 X67.01 Y29.2 E30.62914
G1 X67.691 Y28.568 E30.66004
G1 X68.087 Y28.233 E30.67729
G1 X68.785 Y27.692 E30.70666
G1 X69.212 Y27.39 E30.72406
G1 X69.896 Y26.946 E30.75118
G1 X70.233 Y26.746 E30.76422
G1 X70.99 Y26.335 E30.79287
G1 X71.596 Y26.046 E30.8152
G1 X72.204 Y25.78 E30.83727
G1 X73.207 Y25.403 E30.87291
G1 X73.664 Y25.258 E30.88885
G1 X74.379 Y25.059 E30.91354
G1 X74.76 Y24.968 E30.92657
G1 X75.386 Y24.839 E30.94783
G1 X75.726 Y24.78 E30.9593
G1 X76.387 Y24.688 E30.9815
G1 X76.902 Y24.633 E30.99873
G1 X77.574 Y24.583 E31.02114
G1 X78.481 Y24.555 E31.05132
G1 X156.169 Y24.554 E33.63523
G1 X157.177 Y24.571 E33.66876
G1 X158.081 Y24.624 E33.69888
G1 X158.816 Y24.71 E33.7235
G1 X159.31 Y24.786 E33.74012
G1 X159.984 Y24.913 E33.76293
G1 X160.315 Y24.987 E33.77421
G1 X161.001 Y25.165 E33.79778
G1 X161.619 Y25.349 E33.81923
G1 X162.602 Y25.698 E33.85393
G1 X163.016 Y25.869 E33.86882
G1 X163.748 Y26.205 E33.89561
G1 X164.257 Y26.464 E33.91461
G1 X164.998 Y26.881 E33.94289
G1 X165.276 Y27.053 E33.95376
G1 X165.774 Y27.382 E33.97361
G1 X166.087 Y27.602 E33.98634
G1 X166.621 Y28.004 E34.00857
G1 X167.048 Y28.348 E34.02681
G1 X167.797 Y29.014 E34.06014
G1 X168.193 Y29.403 E34.0786
G1 X168.824 Y30.083 E34.10946
G1 X169.159 Y30.478 E34.12668
G1 X169.704 Y31.18 E34.15624
G1 X170.005 Y31.605 E34.17357
G1 X170.446 Y32.284 E34.20049
G1 X170.64 Y32.61 E34.21311
G1 X171.061 Y33.383 E34.24239
G1 X171.356 Y34 E34.26513
G1 X171.623 Y34.611 E34.28731
G1 X171.997 Y35.605 E34.32264
G1 X172.141 Y36.058 E34.33844
G1 X172.342 Y36.784 E34.3635
G1 X172.433 Y37.166 E34.37656
G1 X172.559 Y37.776 E34.39728
G1 X172.618 Y38.114 E34.40869
G1 X172.715 Y38.812 E34.43213
G1 X172.778 Y39.417 E34.45236
G1 X172.832 Y40.327 E34.48268
G1 X172.844 Y41.238 E34.51298
G1 X172.85 Y82.094 E35.87186
G1 X172.828 Y83.343 E35.91341
G1 X172.701 Y86.104 E36.00534
G1 X172.637 Y88.693 E36.09147
G1 X172.646 Y91.221 E36.17555
G1 X172.729 Y93.782 E36.26078
G1 X172.787 Y94.759 E36.29333
G1 X172.831 Y95.832 E36.32905
G1 X172.843 Y96.636 E36.35579
G1 X172.85 Y138.076 E37.73409
G1 X172.831 Y139.23 E37.77248
G1 X172.807 Y139.719 E37.78876
G1 X172.753 Y140.379 E37.81079
G1 X172.711 Y140.746 E37.82307
G1 X172.622 Y141.356 E37.84358
G1 X172.478 Y142.099 E37.86875
G1 X172.384 Y142.511 E37.88281
G1 X172.158 Y143.34 E37.91138
G1 X171.997 Y143.845 E37.92901
G1 X171.711 Y144.631 E37.95683
G1 X171.536 Y145.056 E37.97212
G1 X171.198 Y145.791 E37.99903
G1 X170.942 Y146.295 E38.01783
G1 X170.523 Y147.041 E38.04629
G1 X170.348 Y147.324 E38.05735
G1 X170.018 Y147.824 E38.07728
G1 X169.798 Y148.137 E38.09
G1 X169.396 Y148.671 E38.11224
G1 X169.052 Y149.098 E38.13047
G1 X168.386 Y149.847 E38.16381
G1 X167.997 Y150.243 E38.18227
G1 X167.317 Y150.874 E38.21313
G1 X166.922 Y151.209 E38.23035
G1 X166.287 Y151.706 E38.25717
G1 X166.008 Y151.907 E38.26861
G1 X165.493 Y152.255 E38.28928
G1 X165.151 Y152.471 E38.30274
G1 X164.577 Y152.808 E38.32487
G1 X164.097 Y153.069 E38.34305
G1 X163.166 Y153.515 E38.37738
G1 X162.641 Y153.735 E38.39631
G1 X161.893 Y154.015 E38.42288
G1 X161.042 Y154.277 E38.45249
G1 X160.537 Y154.411 E38.46987
G1 X159.609 Y154.611 E38.50145
G1 X159.186 Y154.682 E38.51571
G1 X158.56 Y154.768 E38.53673
G1 X157.987 Y154.828 E38.55589
G1 X157.072 Y154.882 E38.58638
G1 X156.164 Y154.894 E38.61658
G1 X78.957 Y154.9 E41.18449
G1 X77.855 Y154.881 E41.22115
G1 X77.318 Y154.857 E41.23903
G1 X76.629 Y154.798 E41.26203
G1 X75.723 Y154.677 E41.29243
G1 X74.905 Y154.518 E41.32015
G1 X74.04 Y154.297 E41.34984
G1 X73.383 Y154.101 E41.37265
G1 X72.419 Y153.76 E41.40666
G1 X71.996 Y153.586 E41.42187
G1 X71.25 Y153.244 E41.44916
G1 X70.743 Y152.986 E41.46808
G1 X70.002 Y152.569 E41.49636
G1 X69.724 Y152.397 E41.50724
G1 X69.22 Y152.064 E41.52733
G1 X68.906 Y151.843 E41.5401
G1 X68.38 Y151.447 E41.562
G1 X67.954 Y151.104 E41.58019
G1 X67.203 Y150.436 E41.61362
G1 X66.807 Y150.047 E41.63208
G1 X66.177 Y149.369 E41.66286
G1 X65.841 Y148.973 E41.68014
G1 X65.345 Y148.339 E41.70691
G1 X65.141 Y148.056 E41.71851
G1 X64.786 Y147.529 E41.73965
G1 X64.573 Y147.191 E41.75294
G1 X64.237 Y146.619 E41.775
G1 X63.977 Y146.14 E41.79313
G1 X63.535 Y145.216 E41.8272
G1 X63.315 Y144.691 E41.84613
G1 X63.007 Y143.857 E41.8757
G1 X62.88 Y143.46 E41.88956
G1 X62.707 Y142.854 E41.91052
G1 X62.604 Y142.447 E41.92449
G1 X62.436 Y141.654 E41.95145
G1 X62.375 Y141.295 E41.96356
G1 X62.287 Y140.65 E41.98521
G1 X62.223 Y140.04 E42.00561
